assets/images/home.svg

<svg xmlns="http://www.w3.org/2000/svg" width="20" height="20" viewBox="0 0 20 20"><path fill-rule="evenodd" d="M1.77212 7.3992C1.28495 7.77811 1 8.36072 1 8.9779V17.9997C1 18.552 1.44771 18.9997 1.99999 18.9997L18 19C18.5523 19 19 18.5523 19 18V8.97812C19 8.36095 18.7151 7.77835 18.2279 7.39944L10.6139 1.47726C10.2528 1.19639 9.74716 1.19638 9.38605 1.47725L1.77212 7.3992ZM8 11.9998C7.44772 11.9998 7 12.4475 7 12.9998V18.9998H13V12.9998C13 12.4475 12.5523 11.9998 12 11.9998H8Z" clip-rule="evenodd"/></svg>

<svg xmlns="http://www.w3.org/2000/svg" width="20" height="20" viewBox="0 0 20 20"><path fill-rule="evenodd" d="M1.772 7.4A2 2 0 0 0 1 8.977V18a1 1 0 0 0 1 1h16a1 1 0 0 0 1-1V8.978a2 2 0 0 0-.772-1.579l-7.614-5.922a1 1 0 0 0-1.228 0zM8 12a1 1 0 0 0-1 1v6h6v-6a1 1 0 0 0-1-1z" clip-rule="evenodd"/></svg>
